src/pos-icons/umbrella.svg

<svg height="24" viewBox="0 0 24 24" width="24" xmlns="http://www.w3.org/2000/svg"><path d="m12 2a9 9 0 0 1 9 9h-8v8a3 3 0 0 1 -3 3 3 3 0 0 1 -3-3v-1h2v1a1 1 0 0 0 1 1 1 1 0 0 0 1-1v-8h-8a9 9 0 0 1 9-9z"/></svg>

<?xml version="1.0" encoding="UTF-8"?><!DOCTYPE svg PUBLIC "-//W3C//DTD SVG 1.1//EN" "http://www.w3.org/Graphics/SVG/1.1/DTD/svg11.dtd"><svg xmlns="http://www.w3.org/2000/svg" xmlns:xlink="http://www.w3.org/1999/xlink" version="1.1" id="mdi-umbrella" width="24" height="24" viewBox="0 0 24 24"><path d="M12,2A9,9 0 0,1 21,11H13V19A3,3 0 0,1 10,22A3,3 0 0,1 7,19V18H9V19A1,1 0 0,0 10,20A1,1 0 0,0 11,19V11H3A9,9 0 0,1 12,2Z" /></svg>
